; G-Code generated by Simplify3D(R) Version 4.1.2
; Apr 13, 2019 at 12:45:25 PM
; Settings Summary
;   processName,Process1
;   applyToModels,Tape Splicing Block
;   profileName,Velleman K8400 Dual wreutz Heatbed extrudr Material 95% Flow (modified)
;   profileVersion,2019-04-13 11:14:05
;   baseProfile,Velleman K8400 Dual(2)
;   printMaterial,PLA
;   printQuality,Medium
;   printExtruders,Right Extruder Only
;   extruderName,Right Extruder,Left Extruder
;   extruderToolheadNumber,0,1
;   extruderDiameter,0.35,0.35
;   extruderAutoWidth,1,1
;   extruderWidth,0.42,0.42
;   extrusionMultiplier,0.95,0.95
;   extruderUseRetract,1,1
;   extruderRetractionDistance,4.5,4.5
;   extruderExtraRestartDistance,-0.1,-0.1
;   extruderRetractionZLift,0,0
;   extruderRetractionSpeed,3000,3000
;   extruderUseCoasting,0,0
;   extruderCoastingDistance,0.2,0.2
;   extruderUseWipe,0,0
;   extruderWipeDistance,5,5
;   primaryExtruder,0
;   layerHeight,0.2
;   topSolidLayers,3
;   bottomSolidLayers,3
;   perimeterOutlines,2
;   printPerimetersInsideOut,1
;   startPointOption,2
;   startPointOriginX,0
;   startPointOriginY,0
;   sequentialIslands,0
;   spiralVaseMode,0
;   firstLayerHeightPercentage,90
;   firstLayerWidthPercentage,100
;   firstLayerUnderspeed,0.5
;   useRaft,0
;   raftExtruder,0
;   raftTopLayers,3
;   raftBaseLayers,2
;   raftOffset,3
;   raftSeparationDistance,0.14
;   raftTopInfill,100
;   aboveRaftSpeedMultiplier,0.3
;   useSkirt,1
;   skirtExtruder,0
;   skirtLayers,1
;   skirtOutlines,3
;   skirtOffset,4
;   usePrimePillar,0
;   primePillarExtruder,999
;   primePillarWidth,12
;   primePillarLocation,7
;   primePillarSpeedMultiplier,1
;   useOozeShield,0
;   oozeShieldExtruder,999
;   oozeShieldOffset,2
;   oozeShieldOutlines,1
;   oozeShieldSidewallShape,1
;   oozeShieldSidewallAngle,30
;   oozeShieldSpeedMultiplier,1
;   infillExtruder,0
;   internalInfillPattern,Rectilinear
;   externalInfillPattern,Rectilinear
;   infillPercentage,30
;   outlineOverlapPercentage,25
;   infillExtrusionWidthPercentage,150
;   minInfillLength,5
;   infillLayerInterval,1
;   internalInfillAngles,45,-45
;   overlapInternalInfillAngles,0
;   externalInfillAngles,45,-45
;   generateSupport,1
;   supportExtruder,0
;   supportInfillPercentage,30
;   supportExtraInflation,0
;   supportBaseLayers,0
;   denseSupportExtruder,0
;   denseSupportLayers,0
;   denseSupportInfillPercentage,70
;   supportLayerInterval,1
;   supportHorizontalPartOffset,0.3
;   supportUpperSeparationLayers,1
;   supportLowerSeparationLayers,1
;   supportType,0
;   supportGridSpacing,4
;   maxOverhangAngle,45
;   supportAngles,0
;   temperatureName,Right Extruder,Left Extruder,Heated Bed
;   temperatureNumber,0,1,0
;   temperatureSetpointCount,1,1,1
;   temperatureSetpointLayers,1,1,1
;   temperatureSetpointTemperatures,190,0,60
;   temperatureStabilizeAtStartup,1,0,1
;   temperatureHeatedBed,0,0,1
;   fanLayers,1,2
;   fanSpeeds,30,100
;   blipFanToFullPower,0
;   adjustSpeedForCooling,1
;   minSpeedLayerTime,15
;   minCoolingSpeedSlowdown,20
;   increaseFanForCooling,0
;   minFanLayerTime,45
;   maxCoolingFanSpeed,100
;   increaseFanForBridging,0
;   bridgingFanSpeed,100
;   use5D,1
;   relativeEdistances,0
;   allowEaxisZeroing,1
;   independentExtruderAxes,0
;   includeM10123,0
;   stickySupport,1
;   applyToolheadOffsets,0
;   gcodeXoffset,0
;   gcodeYoffset,0
;   gcodeZoffset,0
;   overrideMachineDefinition,1
;   machineTypeOverride,0
;   strokeXoverride,180
;   strokeYoverride,200
;   strokeZoverride,190
;   originOffsetXoverride,0
;   originOffsetYoverride,0
;   originOffsetZoverride,0
;   homeXdirOverride,-1
;   homeYdirOverride,-1
;   homeZdirOverride,-1
;   flipXoverride,1
;   flipYoverride,-1
;   flipZoverride,1
;   toolheadOffsets,0,0|23.7,0|0,0|0,0|0,0|0,0
;   overrideFirmwareConfiguration,1
;   firmwareTypeOverride,RepRap (Marlin/Repetier/Sprinter)
;   GPXconfigOverride,r2
;   baudRateOverride,250000
;   overridePrinterModels,1
;   printerModelsOverride
;   startingGcode,G28 ; home all axes,M218 T0 X0 Y0 ; tool 0 offset,M218 T1 X-23.7 Y0 ; tool 1 offset,; purge line at front of platform,G0 X0 Y0 F9000 ; Go to front,G0 Z0.15 ; Drop to bed,G92 E0 ; zero the extruded length,G1 X40 E25 F500 ; Extrude 25mm of filament in a 4cm line,G92 E0 ; zero the extruded length,G1 E-1 F500 ; Retract a little,G1 X80 F4000 ; Quickly wipe away from the filament line,G1 Z0.3 ; Raise and begin printing.
;   layerChangeGcode,
;   retractionGcode,
;   toolChangeGcode,
;   endingGcode,; G28 X0 ; home X-axis,; move bed down for easy cleaning,G90 ; absolute positioning,G1 X0 Y100 Z160 ; position head,G91 ; relative positioning,,; from repetier host:,T0,G1 E-1 ; Reduce filament pressure,M104 S0 T0 ; turn off right extruder,T1,G1 E-1 ; Reduce filament pressure,; end repetier host,M104 S0 T0 ; turn off right extruder,M104 S0 T1 ; turn off left extruder,M140 S0 ; turn off bed,,; turn on fan to cool down,M106 S255 ; turn on fan to max,G4 S30 ; wait 30 sec,M107 ; turn off fan,,M84 ; disable motors,
;   exportFileFormat,gcode
;   celebration,0
;   celebrationSong,Random Song
;   postProcessing,
;   defaultSpeed,3600
;   outlineUnderspeed,0.5
;   solidInfillUnderspeed,0.8
;   supportUnderspeed,0.8
;   rapidXYspeed,4800
;   rapidZspeed,1002
;   minBridgingArea,99999
;   bridgingExtraInflation,0
;   bridgingExtrusionMultiplier,1
;   bridgingSpeedMultiplier,1
;   useFixedBridgingAngle,0
;   fixedBridgingAngle,0
;   applyBridgingToPerimeters,0
;   filamentDiameters,1.75|1.75|1.75|1.75|1.75|1.75
;   filamentPricesPerKg,46|46|46|46|46|46
;   filamentDensities,1.25|1.25|1.25|1.25|1.25|1.25
;   useMinPrintHeight,0
;   minPrintHeight,0
;   useMaxPrintHeight,0
;   maxPrintHeight,0
;   useDiaphragm,0
;   diaphragmLayerInterval,20
;   robustSlicing,1
;   mergeAllIntoSolid,0
;   onlyRetractWhenCrossingOutline,1
;   retractBetweenLayers,1
;   useRetractionMinTravel,0
;   retractionMinTravel,3
;   retractWhileWiping,0
;   onlyWipeOutlines,1
;   avoidCrossingOutline,1
;   maxMovementDetourFactor,3
;   toolChangeRetractionDistance,12
;   toolChangeExtraRestartDistance,-0.5
;   toolChangeRetractionSpeed,600
;   externalThinWallType,0
;   internalThinWallType,1
;   thinWallAllowedOverlapPercentage,10
;   singleExtrusionMinLength,1
;   singleExtrusionMinPrintingWidthPercentage,50
;   singleExtrusionMaxPrintingWidthPercentage,200
;   singleExtrusionEndpointExtension,0.2
;   horizontalSizeCompensation,0
G90
M82
M106 S77
M140 S60
M190 S60
M104 S190 T0
M104 S0 T1
M109 S190 T0
G28 ; home all axes
M218 T0 X0 Y0 ; tool 0 offset
M218 T1 X-23.7 Y0 ; tool 1 offset
; purge line at front of platform
G0 X0 Y0 F9000 ; Go to front
G0 Z0.15 ; Drop to bed
G92 E0 ; zero the extruded length
G1 X40 E25 F500 ; Extrude 25mm of filament in a 4cm line
G92 E0 ; zero the extruded length
G1 E-1 F500 ; Retract a little
G1 X80 F4000 ; Quickly wipe away from the filament line
G1 Z0.3 ; Raise and begin printing.
; process Process1
; layer 1, Z = 0.180
T0
G92 E0.0000
G1 E-4.5000 F3000
; feature skirt
; tool H0.180 W0.420
G1 Z0.180 F1002
G1 X22.908 Y84.950 F4800
G1 E-0.1000 F3000
G92 E0.0000
G1 X157.092 Y84.950 E4.0066 F1800
G1 X160.050 Y87.908 E4.1315
G1 X160.050 Y112.092 E4.8536
G1 X157.092 Y115.050 E4.9786
G1 X22.908 Y115.050 E8.9852
G1 X19.950 Y112.092 E9.1101
G1 X19.950 Y87.908 E9.8322
G1 X22.908 Y84.950 E9.9571
G92 E0.0000
G1 E-4.5000 F3000
G1 X23.082 Y85.370 F4800
G1 E-0.1000 F3000
G92 E0.0000
G1 X156.918 Y85.370 E3.9962 F1800
G1 X159.630 Y88.082 E4.1108
G1 X159.630 Y111.918 E4.8225
G1 X156.918 Y114.630 E4.9370
G1 X23.082 Y114.630 E8.9332
G1 X20.370 Y111.918 E9.0478
G1 X20.370 Y88.082 E9.7595
G1 X23.082 Y85.370 E9.8740
G92 E0.0000
G1 E-4.5000 F3000
G1 X23.256 Y85.790 F4800
G1 E-0.1000 F3000
G92 E0.0000
G1 X156.744 Y85.790 E3.9858 F1800
G1 X159.210 Y88.256 E4.0900
G1 X159.210 Y111.744 E4.7913
G1 X156.744 Y114.210 E4.8955
G1 X23.256 Y114.210 E8.8813
G1 X20.790 Y111.744 E8.9854
G1 X20.790 Y88.256 E9.6868
G1 X23.256 Y85.790 E9.7909
G92 E0.0000
G1 E-4.5000 F3000
; feature inner perimeter
G1 X25.210 Y90.210 F4800
G1 X25.424 Y90.210
G1 X25.630 Y90.630
G1 E-0.1000 F3000
G92 E0.0000
G1 X154.370 Y90.630 E3.8441 F1350
G1 X154.370 Y109.370 E4.4036
G1 X25.630 Y109.370 E8.2477
G1 X25.630 Y90.630 E8.8073
; feature outer perimeter
G1 X25.210 Y90.210 F4800
G92 E0.0000
G1 X154.790 Y90.210 E3.8692 F900
G1 X154.790 Y109.790 E4.4538
G1 X25.210 Y109.790 E8.3230
G1 X25.210 Y90.210 E8.9076
; feature solid layer
G1 X25.997 Y109.055 F4800
G92 E0.0000
G1 X25.945 Y109.003 E0.0022 F1440
G1 X25.945 Y108.409 E0.0199
G1 X26.591 Y109.055 E0.0472
G1 X27.185 Y109.055 E0.0649
G1 X25.945 Y107.815 E0.1173
G1 X25.945 Y107.221 E0.1350
G1 X27.779 Y109.055 E0.2124
G1 X28.373 Y109.055 E0.2302
G1 X25.945 Y106.627 E0.3327
G1 X25.945 Y106.033 E0.3504
G1 X28.967 Y109.055 E0.4780
G1 X29.561 Y109.055 E0.4957
G1 X25.945 Y105.439 E0.6484
G1 X25.945 Y104.845 E0.6662
G1 X30.155 Y109.055 E0.8439
G1 X30.748 Y109.055 E0.8617
G1 X25.945 Y104.252 E1.0645
G1 X25.945 Y103.658 E1.0822
G1 X31.342 Y109.055 E1.3101
G1 X31.936 Y109.055 E1.3279
G1 X25.945 Y103.064 E1.5809
G1 X25.945 Y102.470 E1.5986
G1 X32.530 Y109.055 E1.8767
G1 X33.124 Y109.055 E1.8944
G1 X25.945 Y101.876 E2.1976
G1 X25.945 Y101.282 E2.2153
G1 X33.718 Y109.055 E2.5436
G1 X34.312 Y109.055 E2.5613
G1 X25.945 Y100.688 E2.9147
G1 X25.945 Y100.094 E2.9324
G1 X34.906 Y109.055 E3.3108
G1 X35.500 Y109.055 E3.3285
G1 X25.945 Y99.500 E3.7320
G1 X25.945 Y98.906 E3.7498
G1 X36.094 Y109.055 E4.1783
G1 X36.688 Y109.055 E4.1961
G1 X25.945 Y98.312 E4.6497
G1 X25.945 Y97.718 E4.6675
G1 X37.282 Y109.055 E5.1462
G1 X37.876 Y109.055 E5.1639
G1 X25.945 Y97.124 E5.6678
G1 X25.945 Y96.530 E5.6855
G1 X38.470 Y109.055 E6.2144
G1 X39.064 Y109.055 E6.2321
G1 X25.945 Y95.936 E6.7861
G1 X25.945 Y95.342 E6.8039
G1 X39.658 Y109.055 E7.3829
G1 X40.252 Y109.055 E7.4007
G1 X25.945 Y94.748 E8.0048
G1 X25.945 Y94.154 E8.0225
G1 X40.846 Y109.055 E8.6518
G1 X41.440 Y109.055 E8.6695
G1 X25.945 Y93.560 E9.3238
G1 X25.945 Y92.966 E9.3416
G1 X42.034 Y109.055 E10.0210
G1 X42.628 Y109.055 E10.0387
G1 X25.945 Y92.372 E10.7432
G1 X25.945 Y91.778 E10.7609
G1 X43.222 Y109.055 E11.4905
G1 X43.816 Y109.055 E11.5082
G1 X25.945 Y91.184 E12.2628
G1 X25.945 Y90.945 E12.2700
G1 X26.300 Y90.945 E12.2806
G1 X44.410 Y109.055 E13.0453
G1 X45.004 Y109.055 E13.0630
G1 X26.894 Y90.945 E13.8278
G1 X27.488 Y90.945 E13.8455
G1 X45.598 Y109.055 E14.6103
G1 X46.192 Y109.055 E14.6280
G1 X28.082 Y90.945 E15.3927
G1 X28.676 Y90.945 E15.4105
G1 X46.786 Y109.055 E16.1752
G1 X47.380 Y109.055 E16.1929
G1 X29.270 Y90.945 E16.9577
G1 X29.864 Y90.945 E16.9754
G1 X47.974 Y109.055 E17.7402
G1 X48.568 Y109.055 E17.7579
G1 X30.458 Y90.945 E18.5226
G1 X31.052 Y90.945 E18.5404
G1 X49.162 Y109.055 E19.3051
G1 X49.756 Y109.055 E19.3228
G1 X31.646 Y90.945 E20.0876
G1 X32.239 Y90.945 E20.1053
G1 X50.349 Y109.055 E20.8700
G1 X50.943 Y109.055 E20.8878
G1 X32.833 Y90.945 E21.6525
G1 X33.427 Y90.945 E21.6703
G1 X51.537 Y109.055 E22.4350
G1 X52.131 Y109.055 E22.4527
G1 X34.021 Y90.945 E23.2175
G1 X34.615 Y90.945 E23.2352
G1 X52.725 Y109.055 E23.9999
G1 X53.319 Y109.055 E24.0177
G1 X35.209 Y90.945 E24.7824
G1 X35.803 Y90.945 E24.8002
G1 X53.913 Y109.055 E25.5649
G1 X54.507 Y109.055 E25.5826
G1 X36.397 Y90.945 E26.3474
G1 X36.991 Y90.945 E26.3651
G1 X55.101 Y109.055 E27.1298
G1 X55.695 Y109.055 E27.1476
G1 X37.585 Y90.945 E27.9123
G1 X38.179 Y90.945 E27.9300
G1 X56.289 Y109.055 E28.6948
G1 X56.883 Y109.055 E28.7125
G1 X38.773 Y90.945 E29.4773
G1 X39.367 Y90.945 E29.4950
G1 X57.477 Y109.055 E30.2597
G1 X58.071 Y109.055 E30.2775
G1 X39.961 Y90.945 E31.0422
G1 X40.555 Y90.945 E31.0599
G1 X58.665 Y109.055 E31.8247
G1 X59.259 Y109.055 E31.8424
G1 X41.149 Y90.945 E32.6072
G1 X41.743 Y90.945 E32.6249
G1 X59.853 Y109.055 E33.3896
G1 X60.447 Y109.055 E33.4074
G1 X42.337 Y90.945 E34.1721
G1 X42.931 Y90.945 E34.1898
G1 X61.041 Y109.055 E34.9546
G1 X61.635 Y109.055 E34.9723
G1 X43.525 Y90.945 E35.7370
G1 X44.119 Y90.945 E35.7548
G1 X62.229 Y109.055 E36.5195
G1 X62.823 Y109.055 E36.5373
G1 X44.713 Y90.945 E37.3020
G1 X45.307 Y90.945 E37.3197
G1 X63.417 Y109.055 E38.0845
G1 X64.011 Y109.055 E38.1022
G1 X45.901 Y90.945 E38.8669
G1 X46.495 Y90.945 E38.8847
G1 X64.605 Y109.055 E39.6494
G1 X65.199 Y109.055 E39.6672
G1 X47.089 Y90.945 E40.4319
G1 X47.683 Y90.945 E40.4496
G1 X65.793 Y109.055 E41.2144
G1 X66.387 Y109.055 E41.2321
G1 X48.277 Y90.945 E41.9968
G1 X48.871 Y90.945 E42.0146
G1 X66.981 Y109.055 E42.7793
G1 X67.575 Y109.055 E42.7971
G1 X49.465 Y90.945 E43.5618
G1 X50.059 Y90.945 E43.5795
G1 X68.169 Y109.055 E44.3443
G1 X68.763 Y109.055 E44.3620
G1 X50.653 Y90.945 E45.1267
G1 X51.247 Y90.945 E45.1445
G1 X69.357 Y109.055 E45.9092
G1 X69.950 Y109.055 E45.9269
G1 X51.840 Y90.945 E46.6917
G1 X52.434 Y90.945 E46.7094
G1 X70.544 Y109.055 E47.4742
G1 X71.138 Y109.055 E47.4919
G1 X53.028 Y90.945 E48.2566
G1 X53.622 Y90.945 E48.2744
G1 X71.732 Y109.055 E49.0391
G1 X72.326 Y109.055 E49.0568
G1 X54.216 Y90.945 E49.8216
G1 X54.810 Y90.945 E49.8393
G1 X72.920 Y109.055 E50.6041
G1 X73.514 Y109.055 E50.6218
G1 X55.404 Y90.945 E51.3865
G1 X55.998 Y90.945 E51.4043
G1 X74.108 Y109.055 E52.1690
G1 X74.702 Y109.055 E52.1867
G1 X56.592 Y90.945 E52.9515
G1 X57.186 Y90.945 E52.9692
G1 X75.296 Y109.055 E53.7339
G1 X75.890 Y109.055 E53.7517
G1 X57.780 Y90.945 E54.5164
G1 X58.374 Y90.945 E54.5342
G1 X76.484 Y109.055 E55.2989
G1 X77.078 Y109.055 E55.3166
G1 X58.968 Y90.945 E56.0814
G1 X59.562 Y90.945 E56.0991
G1 X77.672 Y109.055 E56.8638
G1 X78.266 Y109.055 E56.8816
G1 X60.156 Y90.945 E57.6463
G1 X60.750 Y90.945 E57.6641
G1 X78.860 Y109.055 E58.4288
G1 X79.454 Y109.055 E58.4465
G1 X61.344 Y90.945 E59.2113
G1 X61.938 Y90.945 E59.2290
G1 X80.048 Y109.055 E59.9937
G1 X80.642 Y109.055 E60.0115
G1 X62.532 Y90.945 E60.7762
G1 X63.126 Y90.945 E60.7939
G1 X81.236 Y109.055 E61.5587
G1 X81.830 Y109.055 E61.5764
G1 X63.720 Y90.945 E62.3412
G1 X64.314 Y90.945 E62.3589
G1 X82.424 Y109.055 E63.1236
G1 X83.018 Y109.055 E63.1414
G1 X64.908 Y90.945 E63.9061
G1 X65.502 Y90.945 E63.9238
G1 X83.612 Y109.055 E64.6886
G1 X84.206 Y109.055 E64.7063
G1 X66.096 Y90.945 E65.4711
G1 X66.690 Y90.945 E65.4888
G1 X84.800 Y109.055 E66.2535
G1 X85.394 Y109.055 E66.2713
G1 X67.284 Y90.945 E67.0360
G1 X67.878 Y90.945 E67.0537
G1 X85.988 Y109.055 E67.8185
G1 X86.582 Y109.055 E67.8362
G1 X68.472 Y90.945 E68.6010
G1 X69.066 Y90.945 E68.6187
G1 X87.176 Y109.055 E69.3834
G1 X87.770 Y109.055 E69.4012
G1 X69.660 Y90.945 E70.1659
G1 X70.254 Y90.945 E70.1836
G1 X88.364 Y109.055 E70.9484
G1 X88.958 Y109.055 E70.9661
G1 X70.848 Y90.945 E71.7308
G1 X71.441 Y90.945 E71.7486
G1 X89.551 Y109.055 E72.5133
G1 X90.145 Y109.055 E72.5311
G1 X72.035 Y90.945 E73.2958
G1 X72.629 Y90.945 E73.3135
G1 X90.739 Y109.055 E74.0783
G1 X91.333 Y109.055 E74.0960
G1 X73.223 Y90.945 E74.8607
G1 X73.817 Y90.945 E74.8785
G1 X91.927 Y109.055 E75.6432
G1 X92.521 Y109.055 E75.6610
G1 X74.411 Y90.945 E76.4257
G1 X75.005 Y90.945 E76.4434
G1 X93.115 Y109.055 E77.2082
G1 X93.709 Y109.055 E77.2259
G1 X75.599 Y90.945 E77.9906
G1 X76.193 Y90.945 E78.0084
G1 X94.303 Y109.055 E78.7731
G1 X94.897 Y109.055 E78.7908
G1 X76.787 Y90.945 E79.5556
G1 X77.381 Y90.945 E79.5733
G1 X95.491 Y109.055 E80.3381
G1 X96.085 Y109.055 E80.3558
G1 X77.975 Y90.945 E81.1205
G1 X78.569 Y90.945 E81.1383
G1 X96.679 Y109.055 E81.9030
G1 X97.273 Y109.055 E81.9207
G1 X79.163 Y90.945 E82.6855
G1 X79.757 Y90.945 E82.7032
G1 X97.867 Y109.055 E83.4680
G1 X98.461 Y109.055 E83.4857
G1 X80.351 Y90.945 E84.2504
G1 X80.945 Y90.945 E84.2682
G1 X99.055 Y109.055 E85.0329
G1 X99.649 Y109.055 E85.0506
G1 X81.539 Y90.945 E85.8154
G1 X82.133 Y90.945 E85.8331
G1 X100.243 Y109.055 E86.5979
G1 X100.837 Y109.055 E86.6156
G1 X82.727 Y90.945 E87.3803
G1 X83.321 Y90.945 E87.3981
G1 X101.431 Y109.055 E88.1628
G1 X102.025 Y109.055 E88.1805
G1 X83.915 Y90.945 E88.9453
G1 X84.509 Y90.945 E88.9630
G1 X102.619 Y109.055 E89.7277
G1 X103.213 Y109.055 E89.7455
G1 X85.103 Y90.945 E90.5102
G1 X85.697 Y90.945 E90.5280
G1 X103.807 Y109.055 E91.2927
G1 X104.401 Y109.055 E91.3104
