; G-Code generated by Simplify3D(R) Version 4.1.0
; Feb 8, 2019 at 10:19:08 PM
; Settings Summary
;   processName,Process1
;   applyToModels,Schlafaugentaster Abstandhalter,Schlafaugentaster Abstandhalter(2),Schlafaugentaster Abstandhalter(3),Schlafaugentaster Abstandhalter(4),Schlafaugentaster Abstandhalter(5),Schlafaugentaster Abstandhalter(6),Schlafaugentaster Abstandhalter(7),Schlafaugentaster Abstandhalter(8)
;   profileName,Velleman K8400 Dual wreutz Heatbed
;   profileVersion,2018-12-28 15:27:13
;   baseProfile,Velleman K8400 Dual(2)
;   printMaterial,PLA
;   printQuality,Medium
;   printExtruders,Right Extruder Only
;   extruderName,Right Extruder,Left Extruder
;   extruderToolheadNumber,0,1
;   extruderDiameter,0.35,0.35
;   extruderAutoWidth,0,0
;   extruderWidth,0.4,0.4
;   extrusionMultiplier,0.9,0.9
;   extruderUseRetract,1,1
;   extruderRetractionDistance,4.5,4.5
;   extruderExtraRestartDistance,-0.1,-0.1
;   extruderRetractionZLift,0,0
;   extruderRetractionSpeed,3000,3000
;   extruderUseCoasting,0,0
;   extruderCoastingDistance,0.2,0.2
;   extruderUseWipe,0,0
;   extruderWipeDistance,5,5
;   primaryExtruder,0
;   layerHeight,0.2
;   topSolidLayers,3
;   bottomSolidLayers,3
;   perimeterOutlines,2
;   printPerimetersInsideOut,1
;   startPointOption,2
;   startPointOriginX,0
;   startPointOriginY,0
;   sequentialIslands,0
;   spiralVaseMode,0
;   firstLayerHeightPercentage,90
;   firstLayerWidthPercentage,100
;   firstLayerUnderspeed,0.5
;   useRaft,0
;   raftExtruder,0
;   raftTopLayers,3
;   raftBaseLayers,2
;   raftOffset,3
;   raftSeparationDistance,0.14
;   raftTopInfill,100
;   aboveRaftSpeedMultiplier,0.3
;   useSkirt,1
;   skirtExtruder,0
;   skirtLayers,1
;   skirtOutlines,5
;   skirtOffset,4
;   usePrimePillar,0
;   primePillarExtruder,999
;   primePillarWidth,12
;   primePillarLocation,7
;   primePillarSpeedMultiplier,1
;   useOozeShield,0
;   oozeShieldExtruder,999
;   oozeShieldOffset,2
;   oozeShieldOutlines,1
;   oozeShieldSidewallShape,1
;   oozeShieldSidewallAngle,30
;   oozeShieldSpeedMultiplier,1
;   infillExtruder,0
;   internalInfillPattern,Rectilinear
;   externalInfillPattern,Rectilinear
;   infillPercentage,20
;   outlineOverlapPercentage,20
;   infillExtrusionWidthPercentage,150
;   minInfillLength,5
;   infillLayerInterval,1
;   internalInfillAngles,45,-45
;   overlapInternalInfillAngles,0
;   externalInfillAngles,45,-45
;   generateSupport,1
;   supportExtruder,0
;   supportInfillPercentage,30
;   supportExtraInflation,0
;   supportBaseLayers,0
;   denseSupportExtruder,0
;   denseSupportLayers,0
;   denseSupportInfillPercentage,70
;   supportLayerInterval,1
;   supportHorizontalPartOffset,0.3
;   supportUpperSeparationLayers,1
;   supportLowerSeparationLayers,1
;   supportType,0
;   supportGridSpacing,4
;   maxOverhangAngle,45
;   supportAngles,0
;   temperatureName,Right Extruder,Left Extruder,Heated Bed
;   temperatureNumber,0,1,0
;   temperatureSetpointCount,1,1,1
;   temperatureSetpointLayers,1,1,1
;   temperatureSetpointTemperatures,190,0,60
;   temperatureStabilizeAtStartup,1,0,1
;   temperatureHeatedBed,0,0,1
;   fanLayers,1,2
;   fanSpeeds,30,100
;   blipFanToFullPower,0
;   adjustSpeedForCooling,1
;   minSpeedLayerTime,15
;   minCoolingSpeedSlowdown,20
;   increaseFanForCooling,0
;   minFanLayerTime,45
;   maxCoolingFanSpeed,100
;   increaseFanForBridging,0
;   bridgingFanSpeed,100
;   use5D,1
;   relativeEdistances,0
;   allowEaxisZeroing,1
;   independentExtruderAxes,0
;   includeM10123,0
;   stickySupport,1
;   applyToolheadOffsets,0
;   gcodeXoffset,0
;   gcodeYoffset,0
;   gcodeZoffset,0
;   overrideMachineDefinition,1
;   machineTypeOverride,0
;   strokeXoverride,180
;   strokeYoverride,200
;   strokeZoverride,190
;   originOffsetXoverride,0
;   originOffsetYoverride,0
;   originOffsetZoverride,0
;   homeXdirOverride,-1
;   homeYdirOverride,-1
;   homeZdirOverride,-1
;   flipXoverride,1
;   flipYoverride,-1
;   flipZoverride,1
;   toolheadOffsets,0,0|23.7,0|0,0|0,0|0,0|0,0
;   overrideFirmwareConfiguration,1
;   firmwareTypeOverride,RepRap (Marlin/Repetier/Sprinter)
;   GPXconfigOverride,r2
;   baudRateOverride,250000
;   overridePrinterModels,1
;   printerModelsOverride
;   startingGcode,G28 ; home all axes,M218 T0 X0 Y0 ; tool 0 offset,M218 T1 X-23.7 Y0 ; tool 1 offset,; purge line at front of platform,G0 X0 Y0 F9000 ; Go to front,G0 Z0.15 ; Drop to bed,G92 E0 ; zero the extruded length,G1 X40 E25 F500 ; Extrude 25mm of filament in a 4cm line,G92 E0 ; zero the extruded length,G1 E-1 F500 ; Retract a little,G1 X80 F4000 ; Quickly wipe away from the filament line,G1 Z0.3 ; Raise and begin printing.
;   layerChangeGcode,
;   retractionGcode,
;   toolChangeGcode,
;   endingGcode,; G28 X0 ; home X-axis,; move bed down for easy cleaning,G90 ; absolute positioning,G1 X0 Y100 Z160 ; position head,G91 ; relative positioning,,; from repetier host:,T0,G1 E-1 ; Reduce filament pressure,M104 S0 T0 ; turn off right extruder,T1,G1 E-1 ; Reduce filament pressure,; end repetier host,M104 S0 T0 ; turn off right extruder,M104 S0 T1 ; turn off left extruder,M140 S0 ; turn off bed,,; turn on fan to cool down,M106 S255 ; turn on fan to max,G4 S30 ; wait 30 sec,M107 ; turn off fan,,M84 ; disable motors,
;   exportFileFormat,gcode
;   celebration,0
;   celebrationSong,Random Song
;   postProcessing,
;   defaultSpeed,3600
;   outlineUnderspeed,0.5
;   solidInfillUnderspeed,0.8
;   supportUnderspeed,0.8
;   rapidXYspeed,4800
;   rapidZspeed,1002
;   minBridgingArea,99999
;   bridgingExtraInflation,0
;   bridgingExtrusionMultiplier,1
;   bridgingSpeedMultiplier,1
;   useFixedBridgingAngle,0
;   fixedBridgingAngle,0
;   applyBridgingToPerimeters,0
;   filamentDiameters,1.75|1.75|1.75|1.75|1.75|1.75
;   filamentPricesPerKg,46|46|46|46|46|46
;   filamentDensities,1.25|1.25|1.25|1.25|1.25|1.25
;   useMinPrintHeight,0
;   minPrintHeight,0
;   useMaxPrintHeight,0
;   maxPrintHeight,0
;   useDiaphragm,0
;   diaphragmLayerInterval,20
;   robustSlicing,1
;   mergeAllIntoSolid,0
;   onlyRetractWhenCrossingOutline,1
;   retractBetweenLayers,1
;   useRetractionMinTravel,0
;   retractionMinTravel,3
;   retractWhileWiping,0
;   onlyWipeOutlines,1
;   avoidCrossingOutline,0
;   maxMovementDetourFactor,3
;   toolChangeRetractionDistance,12
;   toolChangeExtraRestartDistance,-0.5
;   toolChangeRetractionSpeed,600
;   externalThinWallType,0
;   internalThinWallType,1
;   thinWallAllowedOverlapPercentage,10
;   singleExtrusionMinLength,1
;   singleExtrusionMinPrintingWidthPercentage,50
;   singleExtrusionMaxPrintingWidthPercentage,200
;   singleExtrusionEndpointExtension,0.2
;   horizontalSizeCompensation,0
G90
M82
M106 S77
M140 S60
M190 S60
M104 S190 T0
M104 S0 T1
M109 S190 T0
G28 ; home all axes
M218 T0 X0 Y0 ; tool 0 offset
M218 T1 X-23.7 Y0 ; tool 1 offset
; purge line at front of platform
G0 X0 Y0 F9000 ; Go to front
G0 Z0.15 ; Drop to bed
G92 E0 ; zero the extruded length
G1 X40 E25 F500 ; Extrude 25mm of filament in a 4cm line
G92 E0 ; zero the extruded length
G1 E-1 F500 ; Retract a little
G1 X80 F4000 ; Quickly wipe away from the filament line
G1 Z0.3 ; Raise and begin printing.
; process Process1
; layer 1, Z = 0.180
T0
G92 E0.0000
G1 E-4.5000 F3000
; feature skirt
; tool H0.180 W0.400
G1 Z0.180 F1002
G1 X53.678 Y64.000 F4800
G1 E-0.1000 F3000
G92 E0.0000
G1 X53.861 Y63.812 E0.0071 F1800
G1 X54.497 Y63.212 E0.0306
G1 X54.698 Y63.039 E0.0378
G1 X55.890 Y62.106 E0.0785
G1 X56.178 Y61.907 E0.0880
G1 X57.466 Y61.128 E0.1285
G1 X57.697 Y61.003 E0.1356
G1 X58.483 Y60.620 E0.1591
G1 X58.724 Y60.515 E0.1662
G1 X60.132 Y59.982 E0.2068
G1 X60.466 Y59.877 E0.2162
G1 X61.935 Y59.515 E0.2570
G1 X62.195 Y59.463 E0.2641
G1 X63.059 Y59.332 E0.2877
G1 X63.320 Y59.304 E0.2948
G1 X64.780 Y59.216 E0.3342
G1 X65.044 Y59.212 E0.3413
G1 X65.918 Y59.239 E0.3648
G1 X66.179 Y59.259 E0.3719
G1 X67.631 Y59.435 E0.4113
G1 X67.891 Y59.479 E0.4184
G1 X68.746 Y59.663 E0.4419
G1 X68.999 Y59.729 E0.4490
G1 X70.435 Y60.177 E0.4895
G1 X70.762 Y60.301 E0.4989
G1 X72.134 Y60.919 E0.5395
G1 X72.368 Y61.037 E0.5465
G1 X73.129 Y61.466 E0.5701
G1 X73.353 Y61.606 E0.5772
G1 X74.557 Y62.436 E0.6166
G1 X74.766 Y62.595 E0.6236
G1 X75.437 Y63.154 E0.6472
G1 X75.632 Y63.332 E0.6543
G1 X76.666 Y64.366 E0.6937
G1 X76.843 Y64.560 E0.7008
G1 X77.403 Y65.231 E0.7243
G1 X77.499 Y65.358 E0.7286
G1 X77.681 Y65.126 E0.7365
G1 X78.678 Y64.000 E0.7771
G1 X78.861 Y63.812 E0.7841
G1 X79.497 Y63.212 E0.8077
G1 X79.698 Y63.039 E0.8148
G1 X80.890 Y62.106 E0.8556
G1 X81.178 Y61.907 E0.8650
G1 X82.466 Y61.128 E0.9056
G1 X82.697 Y61.003 E0.9127
G1 X83.483 Y60.620 E0.9362
G1 X83.724 Y60.515 E0.9433
G1 X85.132 Y59.982 E0.9839
G1 X85.466 Y59.877 E0.9933
G1 X86.935 Y59.515 E1.0341
G1 X87.195 Y59.463 E1.0412
G1 X88.059 Y59.332 E1.0648
G1 X88.320 Y59.304 E1.0718
G1 X89.780 Y59.216 E1.1112
G1 X90.044 Y59.212 E1.1183
G1 X90.918 Y59.239 E1.1419
G1 X91.179 Y59.259 E1.1489
G1 X92.631 Y59.435 E1.1883
G1 X92.891 Y59.479 E1.1955
G1 X93.746 Y59.663 E1.2190
G1 X93.999 Y59.729 E1.2261
G1 X95.435 Y60.177 E1.2666
G1 X95.762 Y60.301 E1.2760
G1 X97.134 Y60.919 E1.3165
G1 X97.368 Y61.037 E1.3236
G1 X98.129 Y61.466 E1.3472
G1 X98.353 Y61.606 E1.3543
G1 X99.557 Y62.436 E1.3937
G1 X99.766 Y62.595 E1.4007
G1 X100.437 Y63.154 E1.4243
G1 X100.632 Y63.332 E1.4314
G1 X101.666 Y64.366 E1.4708
G1 X101.843 Y64.560 E1.4779
G1 X102.403 Y65.231 E1.5014
G1 X102.499 Y65.358 E1.5057
G1 X102.681 Y65.126 E1.5136
G1 X103.678 Y64.000 E1.5542
G1 X103.861 Y63.812 E1.5612
G1 X104.497 Y63.212 E1.5848
G1 X104.698 Y63.039 E1.5919
G1 X105.890 Y62.106 E1.6327
G1 X106.178 Y61.907 E1.6421
G1 X107.466 Y61.128 E1.6827
G1 X107.697 Y61.003 E1.6898
G1 X108.483 Y60.620 E1.7133
G1 X108.724 Y60.515 E1.7204
G1 X110.132 Y59.982 E1.7610
G1 X110.466 Y59.877 E1.7704
G1 X111.935 Y59.515 E1.8112
G1 X112.195 Y59.463 E1.8183
G1 X113.059 Y59.332 E1.8418
G1 X113.320 Y59.304 E1.8489
G1 X114.780 Y59.216 E1.8883
G1 X115.044 Y59.212 E1.8954
G1 X115.918 Y59.239 E1.9190
G1 X116.179 Y59.259 E1.9260
G1 X117.631 Y59.435 E1.9654
G1 X117.891 Y59.479 E1.9725
G1 X118.746 Y59.663 E1.9961
G1 X118.999 Y59.729 E2.0031
G1 X120.435 Y60.177 E2.0437
G1 X120.762 Y60.301 E2.0531
G1 X122.134 Y60.919 E2.0936
G1 X122.368 Y61.037 E2.1007
G1 X123.129 Y61.466 E2.1242
G1 X123.353 Y61.606 E2.1313
G1 X124.557 Y62.436 E2.1707
G1 X124.766 Y62.595 E2.1778
G1 X125.437 Y63.154 E2.2014
G1 X125.632 Y63.332 E2.2085
G1 X126.666 Y64.366 E2.2479
G1 X126.843 Y64.560 E2.2549
G1 X127.403 Y65.231 E2.2785
G1 X127.562 Y65.441 E2.2856
G1 X128.417 Y66.680 E2.3261
G1 X128.598 Y66.979 E2.3355
G1 X129.302 Y68.319 E2.3763
G1 X129.414 Y68.559 E2.3835
G1 X129.749 Y69.367 E2.4070
G1 X129.838 Y69.614 E2.4141
G1 X130.286 Y71.051 E2.4546
G1 X130.370 Y71.390 E2.4641
G1 X130.643 Y72.880 E2.5049
G1 X130.679 Y73.143 E2.5120
G1 X130.757 Y74.013 E2.5356
G1 X130.769 Y74.275 E2.5426
G1 X130.768 Y75.779 E2.5831
G1 X130.747 Y76.128 E2.5926
G1 X130.566 Y77.622 E2.6331
G1 X130.523 Y77.880 E2.6401
G1 X130.340 Y78.735 E2.6637
G1 X130.273 Y78.991 E2.6708
G1 X129.822 Y80.437 E2.7116
G1 X129.698 Y80.764 E2.7211
G1 X129.080 Y82.137 E2.7616
G1 X128.962 Y82.371 E2.7687
G1 X128.532 Y83.133 E2.7922
G1 X128.393 Y83.356 E2.7993
G1 X127.538 Y84.595 E2.8399
G1 X127.322 Y84.870 E2.8493
G1 X126.319 Y86.003 E2.8901
G1 X126.134 Y86.193 E2.8972
G1 X125.497 Y86.793 E2.9208
G1 X125.298 Y86.964 E2.9278
G1 X124.627 Y87.489 E2.9508
G1 X124.766 Y87.595 E2.9555
G1 X125.437 Y88.154 E2.9791
G1 X125.632 Y88.332 E2.9862
G1 X126.666 Y89.366 E3.0256
G1 X126.843 Y89.560 E3.0326
G1 X127.403 Y90.231 E3.0562
G1 X127.562 Y90.441 E3.0633
G1 X128.417 Y91.680 E3.1038
G1 X128.598 Y91.979 E3.1133
G1 X129.302 Y93.319 E3.1540
G1 X129.414 Y93.559 E3.1612
G1 X129.749 Y94.367 E3.1847
G1 X129.838 Y94.614 E3.1918
G1 X130.286 Y96.051 E3.2323
G1 X130.370 Y96.390 E3.2418
G1 X130.643 Y97.880 E3.2826
G1 X130.678 Y98.142 E3.2897
G1 X130.757 Y99.013 E3.3133
G1 X130.769 Y99.275 E3.3203
G1 X130.768 Y100.779 E3.3609
G1 X130.747 Y101.128 E3.3703
G1 X130.566 Y102.622 E3.4108
G1 X130.523 Y102.880 E3.4179
G1 X130.340 Y103.735 E3.4414
G1 X130.273 Y103.992 E3.4486
G1 X129.822 Y105.437 E3.4893
G1 X129.698 Y105.764 E3.4988
G1 X129.080 Y107.137 E3.5393
G1 X128.962 Y107.371 E3.5464
G1 X128.532 Y108.133 E3.5699
G1 X128.393 Y108.356 E3.5770
G1 X127.538 Y109.595 E3.6176
G1 X127.322 Y109.870 E3.6270
G1 X126.319 Y111.003 E3.6678
G1 X126.134 Y111.193 E3.6749
G1 X125.497 Y111.793 E3.6985
G1 X125.298 Y111.964 E3.7056
G1 X124.147 Y112.865 E3.7450
G1 X123.932 Y113.018 E3.7521
G1 X123.198 Y113.493 E3.7756
G1 X122.972 Y113.625 E3.7827
G1 X121.677 Y114.304 E3.8221
G1 X121.437 Y114.416 E3.8292
G1 X120.630 Y114.750 E3.8527
G1 X120.384 Y114.839 E3.8598
G1 X118.947 Y115.286 E3.9003
G1 X118.608 Y115.370 E3.9097
G1 X117.128 Y115.641 E3.9503
G1 X116.868 Y115.677 E3.9573
G1 X115.998 Y115.757 E3.9809
G1 X115.734 Y115.769 E3.9880
G1 X114.272 Y115.769 E4.0274
G1 X114.010 Y115.757 E4.0345
G1 X113.139 Y115.678 E4.0580
G1 X112.876 Y115.642 E4.0651
G1 X111.388 Y115.369 E4.1059
G1 X111.048 Y115.285 E4.1153
G1 X109.611 Y114.837 E4.1559
G1 X109.363 Y114.748 E4.1630
G1 X108.556 Y114.413 E4.1865
G1 X108.318 Y114.302 E4.1936
G1 X106.985 Y113.602 E4.2342
G1 X106.686 Y113.421 E4.2436
G1 X105.440 Y112.561 E4.2844
G1 X105.229 Y112.401 E4.2915
G1 X104.557 Y111.841 E4.3151
G1 X104.364 Y111.664 E4.3221
G1 X103.331 Y110.631 E4.3615
G1 X103.154 Y110.437 E4.3686
G1 X102.599 Y109.772 E4.3919
G1 X102.501 Y109.642 E4.3963
G1 X102.322 Y109.870 E4.4041
G1 X101.319 Y111.003 E4.4449
G1 X101.134 Y111.193 E4.4520
G1 X100.497 Y111.793 E4.4756
G1 X100.298 Y111.964 E4.4826
G1 X99.627 Y112.489 E4.5056
G1 X99.766 Y112.595 E4.5103
G1 X100.437 Y113.154 E4.5339
G1 X100.632 Y113.332 E4.5410
G1 X101.666 Y114.366 E4.5804
G1 X101.843 Y114.560 E4.5874
G1 X102.403 Y115.231 E4.6110
G1 X102.562 Y115.441 E4.6181
G1 X103.417 Y116.680 E4.6586
G1 X103.598 Y116.979 E4.6680
G1 X104.302 Y118.319 E4.7088
G1 X104.414 Y118.559 E4.7160
G1 X104.749 Y119.367 E4.7395
G1 X104.838 Y119.614 E4.7466
G1 X105.286 Y121.051 E4.7871
G1 X105.370 Y121.390 E4.7966
G1 X105.643 Y122.880 E4.8374
G1 X105.678 Y123.142 E4.8445
G1 X105.757 Y124.013 E4.8681
G1 X105.769 Y124.275 E4.8751
G1 X105.768 Y125.779 E4.9156
G1 X105.747 Y126.128 E4.9251
G1 X105.566 Y127.622 E4.9656
G1 X105.523 Y127.880 E4.9726
G1 X105.340 Y128.735 E4.9962
G1 X105.273 Y128.992 E5.0033
G1 X104.822 Y130.437 E5.0441
G1 X104.698 Y130.764 E5.0536
G1 X104.080 Y132.137 E5.0941
G1 X103.962 Y132.371 E5.1012
G1 X103.532 Y133.133 E5.1247
G1 X103.393 Y133.356 E5.1318
G1 X102.538 Y134.595 E5.1724
G1 X102.322 Y134.870 E5.1818
G1 X101.319 Y136.003 E5.2226
G1 X101.135 Y136.193 E5.2297
G1 X100.498 Y136.793 E5.2533
G1 X100.298 Y136.964 E5.2603
G1 X99.147 Y137.865 E5.2997
G1 X98.932 Y138.018 E5.3069
G1 X98.198 Y138.493 E5.3304
G1 X97.972 Y138.625 E5.3375
G1 X96.677 Y139.304 E5.3769
G1 X96.437 Y139.416 E5.3840
G1 X95.630 Y139.750 E5.4075
G1 X95.384 Y139.839 E5.4146
G1 X93.947 Y140.286 E5.4551
G1 X93.608 Y140.370 E5.4645
G1 X92.128 Y140.641 E5.5051
G1 X91.868 Y140.677 E5.5121
G1 X90.998 Y140.757 E5.5357
G1 X90.734 Y140.769 E5.5428
G1 X89.272 Y140.769 E5.5822
G1 X89.010 Y140.757 E5.5892
G1 X88.139 Y140.678 E5.6128
G1 X87.876 Y140.642 E5.6199
G1 X86.388 Y140.369 E5.6607
G1 X86.048 Y140.285 E5.6701
G1 X84.611 Y139.837 E5.7107
G1 X84.363 Y139.748 E5.7178
G1 X83.556 Y139.413 E5.7413
G1 X83.318 Y139.302 E5.7484
G1 X82.024 Y138.622 E5.7878
G1 X81.798 Y138.490 E5.7948
G1 X81.107 Y138.044 E5.8170
G1 X80.963 Y137.944 E5.8217
G1 X80.300 Y137.457 E5.8439
G1 X80.095 Y137.292 E5.8510
G1 X78.962 Y136.288 E5.8917
G1 X78.714 Y136.040 E5.9012
G1 X77.681 Y134.874 E5.9432
G1 X77.500 Y134.643 E5.9511
G1 X77.322 Y134.870 E5.9589
G1 X76.319 Y136.003 E5.9996
G1 X76.135 Y136.193 E6.0068
G1 X75.498 Y136.793 E6.0303
G1 X75.298 Y136.964 E6.0374
G1 X74.147 Y137.865 E6.0768
G1 X73.932 Y138.018 E6.0839
G1 X73.198 Y138.493 E6.1074
G1 X72.972 Y138.625 E6.1145
G1 X71.677 Y139.304 E6.1539
G1 X71.437 Y139.416 E6.1610
G1 X70.630 Y139.750 E6.1846
G1 X70.384 Y139.839 E6.1916
G1 X68.947 Y140.286 E6.2322
G1 X68.608 Y140.370 E6.2416
